loleaflet/images/lc_insertmeanvalue.svg

<svg viewBox="0 0 24 24" xmlns="http://www.w3.org/2000/svg"><path d="m12 5c-.554 0-1 .446-1 1v2h4v-2c0-.554-.446-1-1-1zm-1 6v7c0 .554.446 1 1 1h2c.554 0 1-.446 1-1v-7z" fill="#3a3a38"/><g fill="#3a3a38" transform="matrix(0 -1 -1 0 0 0)"><path d="m4.5 2c-.277 0-.5.223-.5.5v5.5h1v-5.5c0-.277-.223-.5-.5-.5zm-.5 9v10.5c0 .277.223.5.5.5s.5-.223.5-.5v-10.5z" transform="matrix(0 -1 -1 0 0 0)"/><rect height="20" ry=".5" width="1" x="-20" y="-22"/></g><path d="m12 6v2h2v-2zm0 5v7h2v-7z" fill="#c8c6c4"/><path d="m6 11v7c0 .554.446 1 1 1h2c.554 0 1-.446 1-1v-7z" fill="#3a3a38"/><path d="m7 11v7h2v-7z" fill="#c8c6c4"/><rect fill="#3a3a38" height="8" ry="1" width="4" x="16" y="11"/><path d="m17 12h2v6h-2z" fill="#c8c6c4"/><rect fill="#1e8bcd" height="20" ry=".5" transform="matrix(0 -1 -1 0 0 0)" width="1" x="-10" y="-22"/></svg>

<?xml version="1.0" encoding="UTF-8" standalone="no"?>
<svg
   xmlns:dc="http://purl.org/dc/elements/1.1/"
   xmlns:cc="http://creativecommons.org/ns#"
   xmlns:rdf="http://www.w3.org/1999/02/22-rdf-syntax-ns#"
   xmlns:svg="http://www.w3.org/2000/svg"
   xmlns="http://www.w3.org/2000/svg"
   xmlns:sodipodi="http://sodipodi.sourceforge.net/DTD/sodipodi-0.dtd"
   xmlns:inkscape="http://www.inkscape.org/namespaces/inkscape"
   viewBox="0 0 24 24"
   version="1.1"
   id="svg20"
   sodipodi:docname="lc_insertmeanvalue.svg"
   inkscape:version="0.92.5 (2060ec1f9f, 2020-04-08)">
  <metadata
     id="metadata26">
    <rdf:RDF>
      <cc:Work
         rdf:about="">
        <dc:format>image/svg+xml</dc:format>
        <dc:type
           rdf:resource="http://purl.org/dc/dcmitype/StillImage" />
        <dc:title></dc:title>
      </cc:Work>
    </rdf:RDF>
  </metadata>
  <defs
     id="defs24" />
  <sodipodi:namedview
     pagecolor="#ffffff"
     bordercolor="#666666"
     borderopacity="1"
     objecttolerance="10"
     gridtolerance="10"
     guidetolerance="10"
     inkscape:pageopacity="0"
     inkscape:pageshadow="2"
     inkscape:window-width="1366"
     inkscape:window-height="700"
     id="namedview22"
     showgrid="true"
     inkscape:zoom="27.812867"
     inkscape:cx="13.447583"
     inkscape:cy="10.812806"
     inkscape:window-x="0"
     inkscape:window-y="0"
     inkscape:window-maximized="1"
     inkscape:current-layer="svg20">
    <inkscape:grid
       type="xygrid"
       id="grid839" />
  </sodipodi:namedview>
  <path
     d="M 12 5 C 11.446 5 11 5.446 11 6 L 11 8 L 15 8 L 15 6 C 15 5.446 14.554 5 14 5 L 12 5 z M 11 11 L 11 18 C 11 18.554 11.446 19 12 19 L 14 19 C 14.554 19 15 18.554 15 18 L 15 11 L 11 11 z "
     id="rect2"
     style="fill:#3a3a38" />
  <g
     fill="#3a3a38"
     transform="matrix(0 -1 -1 0 0 0)"
     id="g8">
    <path
       d="M 4.5 2 C 4.223 2 4 2.223 4 2.5 L 4 8 L 5 8 L 5 2.5 C 5 2.223 4.777 2 4.5 2 z M 4 11 L 4 21.5 C 4 21.777 4.223 22 4.5 22 C 4.777 22 5 21.777 5 21.5 L 5 11 L 4 11 z "
       transform="matrix(0,-1,-1,0,0,0)"
       id="rect4"
       style="fill:#3a3a38" />
    <rect
       height="20"
       ry=".5"
       width="1"
       x="-20"
       y="-22"
       id="rect6"
       style="fill:#3a3a38" />
  </g>
  <path
     d="M 12 6 L 12 8 L 14 8 L 14 6 L 12 6 z M 12 11 L 12 18 L 14 18 L 14 11 L 12 11 z "
     id="path10"
     style="fill:#c8c6c4" />
  <path
     d="M 6 11 L 6 18 C 6 18.554 6.446 19 7 19 L 9 19 C 9.554 19 10 18.554 10 18 L 10 11 L 6 11 z "
     id="rect12"
     style="fill:#3a3a38" />
  <path
     d="M 7 11 L 7 18 L 9 18 L 9 11 L 7 11 z "
     id="path14"
     style="fill:#c8c6c4" />
  <rect
     fill="#3a3a38"
     height="8"
     ry="1"
     width="4"
     x="16"
     y="11"
     id="rect16"
     style="fill:#3a3a38" />
  <path
     d="m17 12h2v6h-2z"
     fill="#c8c6c4"
     id="path18"
     style="fill:#c8c6c4" />
  <rect
     transform="matrix(0,-1,-1,0,0,0)"
     x="-10"
     y="-22"
     width="1"
     height="20"
     ry="0.5"
     id="rect837"
     style="fill:#1e8bcd" />
</svg>
